X:90
T: A panyiti halastóba...
M: 2/4
L: 1/4
K: Eb
g/g/=e/c/ | g/g/=e/c/ | 
f f/e/ | c/e/ d d2 | 
fecf | BcAF |
d/c/c/A/ | F/A/ G G2 |

